X:1
T:Partition sans titre
C:Compositeur / Arrangeur
L:1/8
M:4/4
I:linebreak $
K:D
V:1 treble nm="Violon" snm="Vln."
V:1
"D" DFAF DFAF |"A" EGAG EGAG |"D" DFAF DFAd | fedf"A" e2 AF |"D" DFAF DFAF |"A" EGAG EGAG | %6
"D" DFAF DFAd |1 fedc"D" d2 AF :|2 fedc"D" d2 fd |:"D" Adfd Adfa |"G" gfed e2 B2 |"A7" ABcd edeg | %12
"D" fd"A"ec"D" d2 fd |"D" Adfd Adfa |"G" gfed e2 B2 |"A7" ABcd edeg |1 fedc"D" d2 fd :|2 %17
 fedc"D" d2 AF |] %18
